icons/hardhat-dark.svg

<svg width="256" height="256" viewBox="0 0 256 256" fill="none" xmlns="http://www.w3.org/2000/svg">
<path d="M196 0H60C26.8629 0 0 26.8629 0 60V196C0 229.137 26.8629 256 60 256H196C229.137 256 256 229.137 256 196V60C256 26.8629 229.137 0 196 0Z" fill="#282828"/>
<path d="M241 180.407C241 180.407 206.729 175.331 188.62 173.875C171.228 172.478 150.62 171.671 128.51 171.671C106.4 171.671 85.7928 172.478 68.4063 173.875C50.2921 175.351 16.0254 182.394 16.0254 182.394V191.248C16.0254 199.118 66.3892 205.512 128.51 205.512C190.632 205.512 240.995 199.118 240.995 191.248L241 180.407ZM93.9244 62.9734C52.8497 77.6057 25.42 116.487 25.4174 160.083V174.682C40.0753 171.181 55.0203 169.014 70.0692 168.209C69.9669 165.388 69.9141 162.566 69.911 159.743C69.9259 121.437 79.1746 86.9666 93.9244 62.9734Z" fill="#F0D50C"/>
<path d="M231.598 160.083C231.633 136.162 223.31 112.98 208.067 94.542C214.675 115.643 217.967 137.642 217.827 159.753C217.827 163.778 217.724 167.755 217.518 171.686C222.209 172.408 226.855 173.393 231.435 174.638L231.598 160.083Z" fill="#FFF04D"/>
<path d="M231.598 160.083C231.633 136.162 223.31 112.98 208.067 94.542C214.675 115.643 217.967 137.642 217.827 159.753C217.827 163.778 217.724 167.755 217.518 171.686C222.209 172.408 226.855 173.393 231.435 174.638L231.598 160.083Z" fill="#FFEA00"/>
<path d="M208.067 94.5369C180.447 61.0632 134.828 48.4484 93.9291 62.9735C79.1697 86.9667 69.9263 121.437 69.9263 159.749C69.9263 162.591 69.9781 165.413 70.0827 168.213C85.4328 167.028 103.202 166.295 122.232 166.163H128.52C158.285 165.805 188.036 167.658 217.527 171.705C217.728 167.771 217.831 163.793 217.838 159.773C217.977 137.653 214.681 115.645 208.067 94.5369Z" fill="#FFF04D"/>
<path d="M169.978 101.354L163.445 60.5288C163.218 59.0572 162.577 57.6804 161.598 56.5581C160.62 55.4359 159.342 54.6144 157.915 54.1889C138.879 48.6037 118.638 48.6037 99.6015 54.1889C98.1753 54.6152 96.8991 55.4371 95.9212 56.5593C94.9433 57.6815 94.3038 59.0579 94.0768 60.5288L87.5377 101.354M128.52 165.296H122.227C63.0286 165.71 16.0292 171.927 16.0292 179.536V190.564C15.9343 191.21 16.0723 191.869 16.4186 192.423C19.4252 190.165 22.8811 188.579 26.5532 187.77C35.9048 185.495 45.411 183.904 54.9945 183.009C57.6849 182.714 60.4072 182.996 62.9802 183.835C65.5531 184.675 67.9175 186.053 69.9157 187.878C77.3173 194.653 86.9887 198.41 97.0237 198.409H159.996C170.031 198.41 179.702 194.652 187.104 187.878C189.102 186.051 191.467 184.671 194.041 183.83C196.615 182.99 199.339 182.708 202.031 183.004C211.612 183.899 221.116 185.49 230.467 187.766C233.944 188.434 237.228 189.871 240.079 191.971C240.242 192.133 240.429 192.276 240.572 192.423C240.921 191.866 241.06 191.204 240.965 190.554V179.526C241 171.681 190.637 165.296 128.52 165.296Z" fill="#FFF04D"/>
<path d="M152.213 132.548L128.49 147.147V166.108L152.213 132.548Z" fill="#6E6F70"/>
<path d="M128.515 166.108V147.147L104.792 132.548L128.515 166.108ZM104.792 123.887L128.515 137.6V85.5256L104.792 123.887Z" fill="#0A0A0A"/>
<path d="M152.213 123.887L128.491 85.5212V137.595L152.213 123.882V123.887Z" fill="#6E6F70"/>
</svg>

<svg xmlns="http://www.w3.org/2000/svg" width="256" height="256" fill="none"><path fill="#282828" d="M196 0H60C26.863 0 0 26.863 0 60v136c0 33.137 26.863 60 60 60h136c33.137 0 60-26.863 60-60V60c0-33.137-26.863-60-60-60"/><path fill="#F0D50C" d="M241 180.407s-34.271-5.076-52.38-6.532c-17.392-1.397-38-2.204-60.11-2.204s-42.717.807-60.104 2.204c-18.114 1.476-52.38 8.519-52.38 8.519v8.854c0 7.87 50.363 14.264 112.484 14.264 62.122 0 112.485-6.394 112.485-14.264zM93.924 62.973c-41.074 14.633-68.504 53.514-68.507 97.11v14.599a249.6 249.6 0 0 1 44.652-6.473 241 241 0 0 1-.158-8.466c.015-38.306 9.264-72.776 24.013-96.77"/><path fill="#FFF04D" d="M231.598 160.083a102.63 102.63 0 0 0-23.531-65.541 213.7 213.7 0 0 1 9.76 65.211q0 6.037-.309 11.933c4.691.722 9.337 1.707 13.917 2.952z"/><path fill="#FFEA00" d="M231.598 160.083a102.63 102.63 0 0 0-23.531-65.541 213.7 213.7 0 0 1 9.76 65.211q0 6.037-.309 11.933c4.691.722 9.337 1.707 13.917 2.952z"/><path fill="#FFF04D" d="M208.067 94.537c-27.62-33.474-73.239-46.089-114.138-31.564-14.76 23.994-24.003 58.464-24.003 96.776q0 4.263.157 8.464c15.35-1.185 33.119-1.918 52.149-2.05h6.288a601.5 601.5 0 0 1 89.007 5.542q.301-5.901.311-11.932a213.7 213.7 0 0 0-9.771-65.236"/><path fill="#FFF04D" d="m169.978 101.354-6.533-40.825a7.87 7.87 0 0 0-5.53-6.34 103.57 103.57 0 0 0-58.313 0 7.87 7.87 0 0 0-5.525 6.34l-6.54 40.825m40.983 63.942h-6.293c-59.198.414-106.198 6.631-106.198 14.24v11.028a2.75 2.75 0 0 0 .39 1.859 26.3 26.3 0 0 1 10.134-4.653 198 198 0 0 1 28.442-4.761 19.06 19.06 0 0 1 14.92 4.869 40.14 40.14 0 0 0 27.109 10.531h62.972a40.15 40.15 0 0 0 27.108-10.531 19.05 19.05 0 0 1 14.927-4.874 198 198 0 0 1 28.436 4.762 23.8 23.8 0 0 1 9.612 4.205c.163.162.35.305.493.452a2.77 2.77 0 0 0 .393-1.869v-11.028c.035-7.845-50.328-14.23-112.445-14.23"/><path fill="#6E6F70" d="m152.213 132.548-23.723 14.599v18.961z"/><path fill="#0A0A0A" d="M128.515 166.108v-18.961l-23.723-14.599zm-23.723-42.221 23.723 13.713V85.526z"/><path fill="#6E6F70" d="m152.213 123.887-23.722-38.366v52.074l23.722-13.713z"/></svg>
